icons/1_Primary/Tweakers.svg

<svg width="1024" height="1024" viewBox="0 0 1024 1024" fill="none" xmlns="http://www.w3.org/2000/svg">
<g clip-path="url(#clip0_2_3753)">
<path d="M512 1024C794.77 1024 1024 794.77 1024 512C1024 229.23 794.77 0 512 0C229.23 0 0 229.23 0 512C0 794.77 229.23 1024 512 1024Z" fill="#F9DE81"/>
<path d="M768 512C768 653.38 653.38 768 512 768C370.62 768 256 653.38 256 512C256 370.62 370.62 256 512 256H513.19L374.34 437.14C370.905 442.346 368.835 448.333 368.321 454.549C367.808 460.765 368.866 467.011 371.4 472.71L412.88 606.47C420.54 625.63 428.23 630.7 446.47 630.69H583.47C597.47 630.86 605.83 624.51 613.66 614.54L753.15 426.09L752.98 425.48C762.943 453.237 768.024 482.509 768 512ZM485.72 575.88H540.83V482H597.83V426.93H428.1V482H485.72V575.88Z" fill="white"/>
</g>
<defs>
<clipPath id="clip0_2_3753">
<rect width="1024" height="1024" fill="white"/>
</clipPath>
</defs>
</svg>

<svg xmlns="http://www.w3.org/2000/svg" width="1024" height="1024" fill="none">
   <g clip-path="url(#a)">
      <path fill="#F9DE81" d="M512 1024c282.77 0 512-229.23 512-512S794.77 0 512 0 0 229.23 0 512s229.23 512 512 512Z"/>
      <path fill="#fff" d="M768 512c0 141.38-114.62 256-256 256S256 653.38 256 512s114.62-256 256-256h1.19L374.34 437.14a37.173 37.173 0 0 0-2.94 35.57l41.48 133.76c7.66 19.16 15.35 24.23 33.59 24.22h137c14 .17 22.36-6.18 30.19-16.15l139.49-188.45-.17-.61A255.485 255.485 0 0 1 768 512Zm-282.28 63.88h55.11V482h57v-55.07H428.1V482h57.62v93.88Z"/>
   </g>
   <defs>
      <clipPath id="a">
         <path fill="#fff" d="M0 0h1024v1024H0z"/>
      </clipPath>
   </defs>
</svg>
